X:849
T:The pretty girl
R:Slide
O:Ireland
P:APB The Chieftains
B:Roche 2 n246 - pretty close...
D:Chieftains 9 trk 10
S:Chieftains 9 trk 10
Z:Transcription, chords:Mike Long
M:12/8
L:1/8
K:D
B|:\
"D"A2F ABd "G"e2d BdB|"D"ABA GFG "A"A3 ABd|\
"Bm"efe dBd "G"e2d B2e|"D"fga "A"efe [1 "D"d3 dcB:|[2 "D"d3 d2|]
|:e|\
"D"f2d dcd "G"edB ABd|"D"f2d d2f "A"a3 bag|\
"D"f2d dcd "G"edB ABd|"D"faf "A"gec [1 "D"d3 d2:|[2 "D"d3 dcB|]
